img/payment_3_selected.svg

<svg width="102" height="36" viewBox="0 0 102 36" fill="none" xmlns="http://www.w3.org/2000/svg">
<path d="M0 6C0 2.68629 2.68629 0 6 0H96C99.3137 0 102 2.68629 102 6V30C102 33.3137 99.3137 36 96 36H6C2.68629 36 0 33.3137 0 30V6Z" fill="white"/>
<path d="M20.8432 18.66V20.06H25.6032V24.176H27.3392V20.06H32.2112V18.66H20.8432ZM22.1592 17.288H30.8392V12.248H22.1592V17.288ZM23.8672 15.93V13.62H29.1452V15.93H23.8672ZM33.0655 18.1V19.472H44.4195V18.1H39.6035V17.302H43.2015V15.972H36.2155V15.244H42.8095V13.97H36.2155V13.27H43.1035V11.94H34.4795V17.302H37.8815V18.1H33.0655ZM34.3815 22.118C34.3815 23.462 35.9775 24.176 38.7215 24.176C41.4795 24.176 43.0755 23.462 43.0755 22.118C43.0755 20.788 41.4795 20.06 38.7215 20.06C35.9775 20.06 34.3815 20.788 34.3815 22.118ZM36.1315 22.118C36.1315 21.586 36.9575 21.348 38.7215 21.348C40.4855 21.348 41.3255 21.586 41.3255 22.118C41.3255 22.664 40.4855 22.888 38.7215 22.888C36.9575 22.888 36.1315 22.664 36.1315 22.118ZM45.6098 12.472V13.872H48.1438C48.1298 15.468 47.2058 17.092 45.1618 17.764L46.0298 19.136C47.5138 18.646 48.5078 17.638 49.0678 16.378C49.6138 17.456 50.5518 18.296 51.9378 18.716L52.7638 17.344C50.7898 16.756 49.9218 15.342 49.9078 13.872H52.3858V12.472H45.6098ZM46.8558 21.74C46.8558 23.266 48.4798 24.19 51.0838 24.19C53.6878 24.19 55.3258 23.266 55.3258 21.74C55.3258 20.228 53.6878 19.318 51.0838 19.318C48.4798 19.318 46.8558 20.228 46.8558 21.74ZM48.5778 21.74C48.5778 21.012 49.4738 20.676 51.0838 20.676C52.7218 20.676 53.6038 21.012 53.6038 21.74C53.6038 22.468 52.7218 22.832 51.0838 22.832C49.4738 22.832 48.5778 22.468 48.5778 21.74ZM53.4358 19.08H55.1858V15.972H56.8658V14.544H55.1858V11.632H53.4358V19.08ZM66.2322 11.632V18.366H67.9822V11.632H66.2322ZM57.7482 15.104C57.7482 16.84 59.2182 18.072 61.1502 18.072C63.0962 18.072 64.5662 16.84 64.5662 15.104C64.5662 13.382 63.0962 12.164 61.1502 12.164C59.2182 12.164 57.7482 13.382 57.7482 15.104ZM59.4562 15.104C59.4562 14.152 60.1702 13.578 61.1502 13.578C62.1442 13.578 62.8582 14.152 62.8582 15.104C62.8582 16.07 62.1442 16.616 61.1502 16.616C60.1702 16.616 59.4562 16.07 59.4562 15.104ZM59.6662 24.036H67.9822V18.926H66.2602V20.144H61.3742V18.926H59.6662V24.036ZM61.3742 22.65V21.474H66.2602V22.65H61.3742ZM71.1885 12.206V13.578H78.1045C78.1045 14.46 78.0625 15.44 77.7825 16.714H69.7885V18.1H81.1565V16.714H79.5185C79.8125 15.272 79.8125 14.18 79.8125 13.186V12.206H71.1885ZM71.1325 24.036H79.7705V19.444H71.1325V24.036ZM72.8405 22.664V20.816H78.0625V22.664H72.8405Z" fill="#E7342C"/>
<path d="M6 1H96V-1H6V1ZM101 6V30H103V6H101ZM96 35H6V37H96V35ZM1 30V6H-1V30H1ZM6 35C3.23858 35 1 32.7614 1 30H-1C-1 33.866 2.13401 37 6 37V35ZM101 30C101 32.7614 98.7614 35 96 35V37C99.866 37 103 33.866 103 30H101ZM96 1C98.7614 1 101 3.23858 101 6H103C103 2.13401 99.866 -1 96 -1V1ZM6 -1C2.13401 -1 -1 2.13401 -1 6H1C1 3.23858 3.23858 1 6 1V-1Z" fill="#E7342C"/>
</svg>

<?xml version="1.0" encoding="utf-8"?>
<!-- Generator: Adobe Illustrator 26.3.1, SVG Export Plug-In . SVG Version: 6.00 Build 0)  -->
<svg version="1.1" id="레이어_1" xmlns="http://www.w3.org/2000/svg" xmlns:xlink="http://www.w3.org/1999/xlink" x="0px"
	 y="0px" viewBox="0 0 102 36" style="enable-background:new 0 0 102 36;" xml:space="preserve">
<style type="text/css">
	.st0{fill:#E7342C;}
</style>
<path class="st0" d="M20.84,18.66v1.4h4.76v4.12h1.74v-4.12h4.87v-1.4H20.84z M22.16,17.29h8.68v-5.04h-8.68V17.29z M23.87,15.93
	v-2.31h5.28v2.31H23.87z M33.07,18.1v1.37h11.35V18.1H39.6v-0.8h3.6v-1.33h-6.99v-0.73h6.59v-1.27h-6.59v-0.7h6.89v-1.33h-8.62v5.36
	h3.4v0.8H33.07z M34.38,22.12c0,1.34,1.6,2.06,4.34,2.06c2.76,0,4.35-0.71,4.35-2.06c0-1.33-1.6-2.06-4.35-2.06
	C35.98,20.06,34.38,20.79,34.38,22.12z M36.13,22.12c0-0.53,0.83-0.77,2.59-0.77s2.6,0.24,2.6,0.77c0,0.55-0.84,0.77-2.6,0.77
	S36.13,22.66,36.13,22.12z M45.61,12.47v1.4h2.53c-0.01,1.6-0.94,3.22-2.98,3.89l0.87,1.37c1.48-0.49,2.48-1.5,3.04-2.76
	c0.55,1.08,1.48,1.92,2.87,2.34l0.83-1.37c-1.97-0.59-2.84-2-2.86-3.47h2.48v-1.4H45.61z M46.86,21.74c0,1.53,1.62,2.45,4.23,2.45
	s4.24-0.92,4.24-2.45c0-1.51-1.64-2.42-4.24-2.42S46.86,20.23,46.86,21.74z M48.58,21.74c0-0.73,0.9-1.06,2.51-1.06
	c1.64,0,2.52,0.34,2.52,1.06s-0.88,1.09-2.52,1.09C49.47,22.83,48.58,22.47,48.58,21.74z M53.44,19.08h1.75v-3.11h1.68v-1.43h-1.68
	v-2.91h-1.75V19.08z M66.23,11.63v6.73h1.75v-6.73H66.23z M57.75,15.1c0,1.74,1.47,2.97,3.4,2.97c1.95,0,3.42-1.23,3.42-2.97
	c0-1.72-1.47-2.94-3.42-2.94C59.22,12.16,57.75,13.38,57.75,15.1z M59.46,15.1c0-0.95,0.71-1.53,1.69-1.53
	c0.99,0,1.71,0.57,1.71,1.53c0,0.97-0.71,1.51-1.71,1.51C60.17,16.62,59.46,16.07,59.46,15.1z M59.67,24.04h8.32v-5.11h-1.72v1.22
	h-4.89v-1.22h-1.71V24.04z M61.37,22.65v-1.18h4.89v1.18H61.37z M71.19,12.21v1.37h6.92c0,0.88-0.04,1.86-0.32,3.14h-7.99v1.39
	h11.37v-1.39h-1.64c0.29-1.44,0.29-2.53,0.29-3.53v-0.98H71.19z M71.13,24.04h8.64v-4.59h-8.64V24.04z M72.84,22.66v-1.85h5.22v1.85
	H72.84z"/>
</svg>
